X: 34927
T: Rocking The Boat
R: jig
M: 6/8
K: Amajor
|:AEE ABc|A2E ABc|AFF d2B|cBA BAF|
AEE ABc|AEE ABc|e2c e2c|BAB c2z:|
|:cea ~A2c|ecB BAF|cea ~A2c|ecA ~B3|
cea ~A2c|ecB BAF|e2c e2c|BAB c2z:|

